X: 136
T: E tuo ke xijie To the west boarder of the Otug            (Verwaltungseinheit)
L: 1/4
M: 4/4
K: C
G>cED [I:setbarnb 1]| 
c/AG/EG | 
C>D G/ A/ G/ E/ | 
D>EDG, | 
G>ACA, | 
EGE/ D/E | 
C/ D/ED/CA,/ | 
G,>DG,2 |]

@@@ Tune index: 8804
